!!! OTL: Berkowitz118
!!! Chapter: 1
!!! Section: I
!!! Page: 28
!!! Mode: 
!!! Encoder: DJB
**kern
*staff1
*I"Piano
*clefC3
*k[f#c#]
*D:
*M3/4
4f#\
=1
2a\
4f#\
=2
2d\
4g\
=3
2b\
4g\
=4
2d\
4b\
=5
4.a\
8g\
8f#\L
8e\J
=6
4f#\
4d\
4f#\
=7
4.e\
8e\
8c#\L
8d\J
=8
2e\
4f#\
=9
2a\
4f#\
=10
2d\
4g\
=11
!!linebreak:original
4.b\
8a\
8g\L
8f#\J
=12
2e\
8f#\L
8g\J
=13
4a\
4d\
4f#\
=14
4.e\
8d\
4c#\
=15
4.d\
8f#\
8a\L
8f#\J
=16
4d\
2r
==
*-
